X:390
T: Banks of Erne
S: Reavy Collection: "Music of Corktown"
Z: B.Black
M: 6/8
L: 1/8
R: jig
K: D
F|A2d cAG|A2d cAG|FEF GFE|FED EFG|
A2d cAG|Ade f2a|ged cAG|Adc d2 :|
e|fag fed|egf edc|dcd fed|cAG A2g|
fag fed|ef^g a2f|ged cAG|Adc d2 :|
